SVG_Azure_All/Policy Remediation.svg

<?xml version="1.0" encoding="UTF-8" standalone="no"?>
<!-- Generated by Microsoft Visio, SVG Export Policy Remediation.svg Page-1 -->

<svg
   xmlns:dc="http://purl.org/dc/elements/1.1/"
   xmlns:cc="http://creativecommons.org/ns#"
   xmlns:rdf="http://www.w3.org/1999/02/22-rdf-syntax-ns#"
   xmlns:svg="http://www.w3.org/2000/svg"
   xmlns="http://www.w3.org/2000/svg"
   xmlns:sodipodi="http://sodipodi.sourceforge.net/DTD/sodipodi-0.dtd"
   xmlns:inkscape="http://www.inkscape.org/namespaces/inkscape"
   width="0.75439596in"
   height="0.75111341in"
   viewBox="0 0 54.316592 54.080264"
   xml:space="preserve"
   class="st3"
   version="1.1"
   id="svg29"
   sodipodi:docname="Policy Remediation.svg"
   style="font-size:12px;overflow:visible;color-interpolation-filters:sRGB;fill:none;fill-rule:evenodd;stroke-linecap:square;stroke-miterlimit:3"
   inkscape:version="0.92.5 (2060ec1f9f, 2020-04-08)"><metadata
   id="metadata35"><rdf:RDF><cc:Work
       rdf:about=""><dc:format>image/svg+xml</dc:format><dc:type
         rdf:resource="http://purl.org/dc/dcmitype/StillImage" /></cc:Work></rdf:RDF></metadata><defs
   id="defs33" /><sodipodi:namedview
   pagecolor="#ffffff"
   bordercolor="#666666"
   borderopacity="1"
   objecttolerance="10"
   gridtolerance="10"
   guidetolerance="10"
   inkscape:pageopacity="0"
   inkscape:pageshadow="2"
   inkscape:window-width="640"
   inkscape:window-height="480"
   id="namedview31"
   showgrid="false"
   inkscape:zoom="1.3555141"
   inkscape:cx="36.21122"
   inkscape:cy="36.055017"
   inkscape:window-x="0"
   inkscape:window-y="0"
   inkscape:window-maximized="0"
   inkscape:current-layer="svg29" />
	<style
   type="text/css"
   id="style2">
	<![CDATA[
		.st1 {fill:#68217a;fill-opacity:0.15;stroke:none;stroke-linecap:butt;stroke-width:38.25}
		.st2 {fill:#34113d;stroke:none;stroke-linecap:butt;stroke-width:38.25}
		.st3 {fill:none;fill-rule:evenodd;font-size:12px;overflow:visible;stroke-linecap:square;stroke-miterlimit:3}
	]]>
	</style>

	<g
   id="g27"
   transform="translate(-38.25005,-38.250042)">
		<title
   id="title4">Page-1</title>
		<g
   id="group2243-1"
   transform="translate(35.8737,-35.6347)">
			<title
   id="title6">Policy Remediation</title>
			<g
   id="group2244-2">
				<title
   id="title8">Sheet.2244</title>
				<g
   id="shape2245-3"
   transform="translate(2.37635,-2.69966)">
					<title
   id="title10">Sheet.2245</title>
					<ellipse
   cx="27.1583"
   cy="103.581"
   rx="27.1583"
   ry="26.996599"
   class="st1"
   id="ellipse12"
   style="fill:#68217a;fill-opacity:0.15;stroke:none;stroke-width:38.25;stroke-linecap:butt" />
				</g>
				<g
   id="shape2246-5">
					<title
   id="title15">Sheet.2246</title>
					<path
   d="m 48.88,120.12 c -10.52,10.46 -27.83,10.46 -38.36,0 C 0,109.66 0,92.44 10.52,81.98 Z"
   class="st1"
   id="path17"
   inkscape:connector-curvature="0"
   style="fill:#68217a;fill-opacity:0.15;stroke:none;stroke-width:38.25;stroke-linecap:butt" />
				</g>
				<g
   id="shape2247-7"
   transform="translate(8.82644,-16.8729)">
					<title
   id="title20">Sheet.2247</title>
					<path
   d="m 28.86,105.27 3.39,3.71 -9.5,9.45 -7.13,-7.09 -15.62,15.19 4.07,4.05 11.55,-11.48 7.13,7.09 13.23,-13.5 3.74,3.71 1.02,-12.14 z"
   class="st2"
   id="path22"
   inkscape:connector-curvature="0"
   style="fill:#34113d;stroke:none;stroke-width:38.25;stroke-linecap:butt" />
				</g>
			</g>
		</g>
	</g>
</svg>

<?xml version="1.0" encoding="UTF-8" standalone="no"?>
<!DOCTYPE svg PUBLIC "-//W3C//DTD SVG 1.1//EN" "http://www.w3.org/Graphics/SVG/1.1/DTD/svg11.dtd">
<!-- Generated by Microsoft Visio, SVG Export Policy Remediation.svg Page-1 -->
<svg xmlns="http://www.w3.org/2000/svg" xmlns:xlink="http://www.w3.org/1999/xlink" xmlns:ev="http://www.w3.org/2001/xml-events"
		width="1.8169in" height="1.81358in" viewBox="0 0 130.817 130.578" xml:space="preserve" color-interpolation-filters="sRGB"
		class="st3">
	<style type="text/css">
	<![CDATA[
		.st1 {fill:#68217a;fill-opacity:0.15;stroke:none;stroke-linecap:butt;stroke-width:38.25}
		.st2 {fill:#34113d;stroke:none;stroke-linecap:butt;stroke-width:38.25}
		.st3 {fill:none;fill-rule:evenodd;font-size:12px;overflow:visible;stroke-linecap:square;stroke-miterlimit:3}
	]]>
	</style>

	<g>
		<title>Page-1</title>
		<g id="group2228-1" transform="translate(35.8737,-35.6347)">
			<title>Policy Remediation</title>
			<g id="group2229-2">
				<title>Sheet.2229</title>
				<g id="shape2230-3" transform="translate(2.37635,-2.69966)">
					<title>Sheet.2230</title>
					<ellipse cx="27.1583" cy="103.581" rx="27.1583" ry="26.9966" class="st1"/>
				</g>
				<g id="shape2231-5">
					<title>Sheet.2231</title>
					<path d="M48.88 120.12 C38.36 130.58 21.05 130.58 10.52 120.12 C0 109.66 0 92.44 10.52 81.98 L48.88 120.12 Z"
							class="st1"/>
				</g>
				<g id="shape2232-7" transform="translate(8.82644,-16.8729)">
					<title>Sheet.2232</title>
					<path d="M28.86 105.27 L32.25 108.98 L22.75 118.43 L15.62 111.34 L0 126.53 L4.07 130.58 L15.62 119.1 L22.75 126.19
								 L35.98 112.69 L39.72 116.4 L40.74 104.26 L28.86 105.27 Z" class="st2"/>
				</g>
			</g>
		</g>
	</g>
</svg>
